material/.icons/material/axis-y-rotate-counterclockwise.svg

<svg xmlns="http://www.w3.org/2000/svg" viewBox="0 0 24 24"><path d="M12 14h2.91c-.34 3.45-1.51 6-2.91 6-1.58 0-2.88-3.27-3-7.42l-2-1.15V12c0 5.5 2.24 10 5 10 2.42 0 4.44-3.44 4.9-8H20l-4-4-4 4m0-12c-1.88 0-3.53 2.08-4.38 5.16l1.75 1.01C9.87 5.69 10.86 4 12 4c1.27 0 2.36 2.11 2.79 5.08L16 7.88l.7.7C16 4.74 14.16 2 12 2M2.11 5.13l-1 1.74-.05.07 10.06 5.81 1.6-1.59-10.57-6.1-.04.07m19.78 13.74l1-1.74L19.2 15h-1.43l-.27 1.34 4.39 2.53z"/></svg>

<?xml version="1.0" encoding="UTF-8"?><!DOCTYPE svg PUBLIC "-//W3C//DTD SVG 1.1//EN" "http://www.w3.org/Graphics/SVG/1.1/DTD/svg11.dtd"><svg xmlns="http://www.w3.org/2000/svg" xmlns:xlink="http://www.w3.org/1999/xlink" version="1.1" id="mdi-axis-y-rotate-counterclockwise" width="24" height="24" viewBox="0 0 24 24"><path d="M12,14H14.91C14.57,17.45 13.4,20 12,20C10.42,20 9.12,16.73 9,12.58L7,11.43V12C7,17.5 9.24,22 12,22C14.42,22 16.44,18.56 16.9,14H20L16,10L12,14M12,2C10.12,2 8.47,4.08 7.62,7.16L9.37,8.17C9.87,5.69 10.86,4 12,4C13.27,4 14.36,6.11 14.79,9.08L16,7.88L16.7,8.58C16,4.74 14.16,2 12,2M2.11,5.13L1.11,6.87L1.06,6.94L11.12,12.75L12.72,11.16L2.15,5.06L2.11,5.13M21.89,18.87L22.89,17.13L19.2,15H17.77L17.5,16.34L21.89,18.87Z" /></svg>
